assets/efishery/udang-fill.svg

<svg width="24" height="25" viewBox="0 0 24 25" fill="none" xmlns="http://www.w3.org/2000/svg">
<path fill-rule="evenodd" clip-rule="evenodd" d="M14.2472 2.27344C13.833 2.27344 13.4972 2.60922 13.4972 3.02344C13.4972 3.43765 13.833 3.77344 14.2472 3.77344H19.7472C20.0866 3.77344 20.2687 3.87632 20.3592 3.96122C20.4536 4.0497 20.4972 4.16217 20.4972 4.27344C20.4972 4.38471 20.4536 4.49717 20.3592 4.58566C20.2687 4.67056 20.0866 4.77344 19.7472 4.77344H17.2472H16.7472H9.24721C9.0822 4.77344 8.85341 4.81951 8.6401 4.87357C8.39908 4.93466 8.09572 5.02759 7.75258 5.15892C7.0675 5.42111 6.20482 5.84364 5.3559 6.48882C5.15684 6.6401 4.95878 6.80353 4.76418 6.97974L9.84929 12.0649C10.2955 11.7836 10.8958 11.6419 11.6239 11.7632C11.6647 11.77 11.7059 11.7734 11.7472 11.7734C12.8522 11.7734 14.4919 11.4755 15.8282 10.5372C17.0573 9.67423 17.9843 8.29612 18.0244 6.27344H19.7472C20.4078 6.27344 20.9757 6.06382 21.3851 5.67997C21.7908 5.2997 21.9972 4.78717 21.9972 4.27344C21.9972 3.75971 21.7908 3.24717 21.3851 2.86691C20.9757 2.48306 20.4078 2.27344 19.7472 2.27344H14.2472ZM3.74418 8.08106C2.77355 9.33902 2.0502 11.0325 2 13.2734H8.93655L3.74418 8.08106ZM4.37429 18.9123C3.13086 17.6416 2.46061 16.1027 2.16904 14.7734H8.80874L4.37429 18.9123ZM5.52942 19.886C6.68737 20.6857 8.15948 21.2461 9.99721 21.4016V15.716L5.52942 19.886ZM13.1531 21.2947C12.5751 21.3746 12.0234 21.4214 11.4972 21.4383V15.8729C11.9925 15.9051 12.514 15.8772 13.0174 15.8006C14.2936 15.1763 15.2868 14.8398 16.0491 14.7586C16.8366 14.6748 17.5823 14.8571 17.9713 15.529C18.3032 16.1023 18.2145 16.7949 18.0783 17.3072C18.037 17.4624 17.9867 17.6186 17.9295 17.7734H14.2472C13.833 17.7734 13.4972 18.1092 13.4972 18.5234C13.4972 18.9377 13.833 19.2734 14.2472 19.2734H17.9125C18.0769 19.759 18.1374 20.2062 18.0628 20.6086C17.9926 20.9872 17.8056 21.3065 17.5199 21.5394C17.2478 21.7611 16.9273 21.8717 16.6274 21.9246C16.0414 22.0278 15.3618 21.94 14.7512 21.7997C14.1984 21.6727 13.6404 21.4879 13.1531 21.2947ZM14.2472 8.02344C14.2472 8.29958 14.0234 8.52344 13.7472 8.52344C13.4711 8.52344 13.2472 8.29958 13.2472 8.02344C13.2472 7.7473 13.4711 7.52344 13.7472 7.52344C14.0234 7.52344 14.2472 7.7473 14.2472 8.02344Z" fill="#1D1D1D"/>
</svg>

<svg viewBox="0 0 24 25" xmlns="http://www.w3.org/2000/svg">
  <path fill-rule="evenodd" clip-rule="evenodd" d="M14.247 2.273a.75.75 0 0 0 0 1.5h5.5c.34 0 .522.103.612.188a.424.424 0 0 1 0 .625c-.09.085-.272.187-.612.187h-10.5a2.77 2.77 0 0 0-.607.1 8.068 8.068 0 0 0-.887.286 9.775 9.775 0 0 0-2.397 1.33c-.2.151-.397.315-.592.49l5.085 5.086c.447-.281 1.047-.423 1.775-.302a.75.75 0 0 0 .123.01c1.105 0 2.745-.297 4.081-1.236 1.23-.863 2.156-2.24 2.196-4.264h1.723c.66 0 1.229-.21 1.638-.593a1.923 1.923 0 0 0 0-2.813c-.41-.384-.977-.594-1.638-.594h-5.5zM3.744 8.081C2.774 9.34 2.05 11.033 2 13.273h6.937L3.744 8.081zm.63 10.831c-1.243-1.27-1.913-2.81-2.205-4.139h6.64l-4.435 4.14zm1.155.974c1.158.8 2.63 1.36 4.468 1.516v-5.686l-4.468 4.17zm7.624 1.409c-.578.08-1.13.126-1.656.143v-5.565a7.15 7.15 0 0 0 1.52-.072c1.277-.625 2.27-.961 3.032-1.042.788-.084 1.533.098 1.922.77.332.573.244 1.266.107 1.778a5.23 5.23 0 0 1-.148.466h-3.683a.75.75 0 0 0 0 1.5h3.666c.164.486.224.933.15 1.336a1.54 1.54 0 0 1-.543.93 1.927 1.927 0 0 1-.893.386c-.586.103-1.265.015-1.876-.125a11.312 11.312 0 0 1-1.598-.505zm1.094-13.272a.5.5 0 1 1-1 0 .5.5 0 0 1 1 0z"/>
</svg>
